X: 1
T: G\aangl\aat efter Paul Dahlin
R: g\aangl\aat, snoa
M: 2/4
L: 1/16
Z: John Chambers <jc@trillian.mit.edu>
N: Extra beat in last bar.
W: * Note extra beat in last bar!
K: D
|: Ad \
| "D"f3e d2F2 | A6 Ad \
| f3e d2F2 | "Em"G8 \
| "A7"A,3C E2A2 | c6 B2 \
|1,3 A2AF G2BG | "D"F6 \
:|2,4 A2"A7"FA G2EC | "D"D6 :|
|: f2 \
| "D"a3b a2f2 | d6 F2 \
| "G"G3A B2G2 | "Em"E8 \
| "A7"A2Ac e2ef | g2ge c4 \
|1,3 d2"D"de f2fg | a6 \
:|2,4 d2"D"df "A7"g2ec | "D"d6 :|
|: f2 \
| "D"a2{b}af d2fd | A6 F2 \
| A2{B}AG F2EF | "Em"G6 ef \
| "A7"g2{a}gf e2{f}ed | c6 B2 \
|1,3 A2cB A2EG | "D"F6 \
:|2,4 A2"A7"a2 g2ec |[M:3/4][L:1/16] Acec "D"d4- "*"d2 :|
